img/ok.svg

<svg width="26" height="26" viewBox="0 0 26 26" fill="none" xmlns="http://www.w3.org/2000/svg">
<path d="M26 13C26 20.1797 20.1797 26 13 26C5.8203 26 0 20.1797 0 13C0 5.8203 5.8203 0 13 0C20.1797 0 26 5.8203 26 13Z" fill="#D2D5D3"/>
<g clip-path="url(#clip0)">
<path d="M12.9999 6C11.0697 6 9.5 7.56973 9.5 9.49995C9.5 11.4302 11.0697 12.9999 12.9999 12.9999C14.9302 12.9999 16.4999 11.4302 16.4999 9.49995C16.4999 7.56973 14.9302 6 12.9999 6ZM12.9999 11.2499C12.0348 11.2499 11.25 10.4651 11.25 9.49995C11.25 8.53484 12.0348 7.74997 12.9999 7.74997C13.9651 7.74997 14.7499 8.53484 14.7499 9.49995C14.7499 10.4651 13.9651 11.2499 12.9999 11.2499Z" fill="white"/>
<path d="M17.6411 12.9028C17.299 12.5607 16.746 12.5607 16.4039 12.9028C14.5279 14.7788 11.4742 14.7788 9.59734 12.9028C9.25522 12.5607 8.70222 12.5607 8.36011 12.9028C8.01799 13.245 8.01799 13.7979 8.36011 14.1409C9.44859 15.2294 10.8284 15.8498 12.2512 16.0117L9.75658 18.5063C9.41446 18.8484 9.41446 19.4014 9.75658 19.7435C10.0987 20.0856 10.6517 20.0856 10.9938 19.7435L13.0002 17.7372L15.0065 19.7435C15.1771 19.9141 15.4011 19.9999 15.6251 19.9999C15.8491 19.9999 16.0731 19.9141 16.2437 19.7435C16.5859 19.4014 16.5859 18.8484 16.2437 18.5063L13.7491 16.0117C15.1719 15.8498 16.5517 15.2294 17.6402 14.1409C17.9823 13.7988 17.9823 13.245 17.6411 12.9028Z" fill="white"/>
</g>
<defs>
<clipPath id="clip0">
<rect width="14" height="14" fill="white" transform="translate(6 6)"/>
</clipPath>
</defs>
</svg>

<svg width="26" height="26" fill="none" xmlns="http://www.w3.org/2000/svg"><path d="M26 13c0 7.18-5.82 13-13 13S0 20.18 0 13 5.82 0 13 0s13 5.82 13 13z" fill="#D2D5D3"/><g clip-path="url(#clip0)" fill="#fff"><path d="M13 6c-1.93 0-3.5 1.57-3.5 3.5S11.07 13 13 13s3.5-1.57 3.5-3.5S14.93 6 13 6zm0 5.25c-.965 0-1.75-.785-1.75-1.75s.785-1.75 1.75-1.75 1.75.785 1.75 1.75-.785 1.75-1.75 1.75z"/><path d="M17.641 12.903a.874.874 0 00-1.237 0 4.82 4.82 0 01-6.807 0A.874.874 0 108.36 14.14a6.522 6.522 0 003.891 1.87l-2.494 2.495a.874.874 0 101.237 1.238L13 17.736l2.007 2.007a.873.873 0 001.237 0 .874.874 0 000-1.238l-2.495-2.494a6.523 6.523 0 003.891-1.871.876.876 0 00.001-1.238z"/></g><defs><clipPath id="clip0"><path fill="#fff" transform="translate(6 6)" d="M0 0h14v14H0z"/></clipPath></defs></svg>
